X:0698
M:C
L:1/8
Q:1/2=66
K:G
   d2 d>d   e>dc>B|d2 d>d   e>dc>B|e2       d2       c2 B2 |A2A>A A2  :|
z2|A2 A>A   A>cB>d|c2 B2    A2 B>c|d2       G2       e>dc>B|AGFE  D2z2 |
   G3  A/B/ c2 c2 |B3  c/d/ e2 e2 |d/g/f/g/ f/e/d/c/ B2TA2 |G2G>G G2  :|

